dist/svgs/devui-icons/status/unsolved.svg

<?xml version="1.0" encoding="UTF-8"?>
<svg width="16px" height="16px" viewBox="0 0 16 16" version="1.1" xmlns="http://www.w3.org/2000/svg" xmlns:xlink="http://www.w3.org/1999/xlink">
    <title>未解决</title>
    <desc>Created with Sketch.</desc>
    <g id="图标" stroke="none" stroke-width="1" fill="none" fill-rule="evenodd">
        <g id="未解决">
            <path d="M11,10.5857864 L13.1213203,8.46446609 L14.5355339,9.87867966 L12.4142136,12 L14.5355339,14.1213203 L13.1213203,15.5355339 L11,13.4142136 L8.87867966,15.5355339 L7.46446609,14.1213203 L9.58578644,12 L7.46446609,9.87867966 L8.87867966,8.46446609 L11,10.5857864 Z M2,2 L14,2 L14,4 L2,4 L2,2 Z M2,6 L10,6 L10,8 L2,8 L2,6 Z M2,10 L5,10 L5,12 L2,12 L2,10 Z" id="合并形状" fill="#F95F5B" fill-rule="nonzero"></path>
        </g>
    </g>
</svg>

<svg xmlns="http://www.w3.org/2000/svg" viewBox="0 0 16 16"><path d="M11 10.586l2.121-2.122 1.415 1.415L12.414 12l2.122 2.121-1.415 1.415L11 13.414l-2.121 2.122-1.415-1.415L9.586 12 7.464 9.879 8.88 8.464 11 10.586zM2 2h12v2H2V2zm0 4h8v2H2V6zm0 4h3v2H2v-2z"/></svg>
